web/static/images/dawn.svg

<?xml version="1.0" encoding="utf-8"?>
<!-- Generator: Adobe Illustrator 24.1.2, SVG Export Plug-In . SVG Version: 6.00 Build 0)  -->
<svg version="1.1" id="Layer_1" xmlns="http://www.w3.org/2000/svg" xmlns:xlink="http://www.w3.org/1999/xlink" x="0px" y="0px"
	 viewBox="0 0 449.04 136.19" style="enable-background:new 0 0 449.04 136.19;" xml:space="preserve">
<style type="text/css">
	.st0{fill:#FFFFFF;}
</style>
<path class="st0" d="M57.76,20H20v96.19h37.76c12.97,0,23.95-4.68,32.63-13.91c8.66-9.35,13.05-20.85,13.05-34.18
	c0-13.38-4.39-24.84-13.05-34.05C81.75,24.73,70.77,20,57.76,20z M57.76,102.14H34.72v-68.1h23.04c9.24,0,16.87,3.26,22.66,9.7
	c5.87,6.52,8.84,14.71,8.84,24.35s-2.97,17.83-8.84,24.35C74.63,98.88,67,102.14,57.76,102.14z"/>
<polygon class="st0" points="413.39,20 413.39,87.59 363.81,20 351.29,20 351.29,116.19 366.94,116.19 366.94,48.47 416.52,116.19 
	429.04,116.19 429.04,20 "/>
<path class="st0" d="M149.69,20l-35.87,96.19h15.68l7.65-21.07h40.71l7.65,21.07h15.68L165.34,20H149.69z M172.76,81.2h-30.5
	l15.19-41.92L172.76,81.2z"/>
<polygon class="st0" points="295.69,94.37 273.74,20 259.45,20 237.5,94.37 216.84,20 201.35,20 228.74,115.38 228.97,116.19 
	245.15,116.19 266.59,43.97 288.04,116.19 304.21,116.19 331.83,20 316.35,20 "/>
</svg>

<?xml version="1.0" encoding="UTF-8" standalone="no"?>
<!DOCTYPE svg PUBLIC "-//W3C//DTD SVG 1.1//EN" "http://www.w3.org/Graphics/SVG/1.1/DTD/svg11.dtd">
<svg width="100%" height="100%" viewBox="0 0 410 97" version="1.1" xmlns="http://www.w3.org/2000/svg" xmlns:xlink="http://www.w3.org/1999/xlink" xml:space="preserve" xmlns:serif="http://www.serif.com/" style="fill-rule:evenodd;clip-rule:evenodd;stroke-linejoin:round;stroke-miterlimit:2;">
    <g transform="matrix(1,0,0,1,-20,-20)">
        <path d="M57.76,20L20,20L20,116.19L57.76,116.19C70.73,116.19 81.71,111.51 90.39,102.28C99.05,92.93 103.44,81.43 103.44,68.1C103.44,54.72 99.05,43.26 90.39,34.05C81.75,24.73 70.77,20 57.76,20ZM57.76,102.14L34.72,102.14L34.72,34.04L57.76,34.04C67,34.04 74.63,37.3 80.42,43.74C86.29,50.26 89.26,58.45 89.26,68.09C89.26,77.73 86.29,85.92 80.42,92.44C74.63,98.88 67,102.14 57.76,102.14Z" style="fill:white;fill-rule:nonzero;"/>
    </g>
    <g transform="matrix(1,0,0,1,-20,-20)">
        <path d="M413.39,20L413.39,87.59L363.81,20L351.29,20L351.29,116.19L366.94,116.19L366.94,48.47L416.52,116.19L429.04,116.19L429.04,20L413.39,20Z" style="fill:white;fill-rule:nonzero;"/>
    </g>
    <g transform="matrix(1,0,0,1,-20,-20)">
        <path d="M149.69,20L113.82,116.19L129.5,116.19L137.15,95.12L177.86,95.12L185.51,116.19L201.19,116.19L165.34,20L149.69,20ZM172.76,81.2L142.26,81.2L157.45,39.28L172.76,81.2Z" style="fill:white;fill-rule:nonzero;"/>
    </g>
    <g transform="matrix(1,0,0,1,-20,-20)">
        <path d="M295.69,94.37L273.74,20L259.45,20L237.5,94.37L216.84,20L201.35,20L228.74,115.38L228.97,116.19L245.15,116.19L266.59,43.97L288.04,116.19L304.21,116.19L331.83,20L316.35,20L295.69,94.37Z" style="fill:white;fill-rule:nonzero;"/>
    </g>
</svg>
